svgs/sharp-light/arrow-down-z-a.svg

<svg xmlns="http://www.w3.org/2000/svg" viewBox="0 0 576 512"><!--! Font Awesome Pro 6.6.0 by @fontawesome - https://fontawesome.com License - https://fontawesome.com/license (Commercial License) Copyright 2024 Fonticons, Inc. --><path d="M160 478.6l11.3-11.3 88-88L270.6 368 248 345.4l-11.3 11.3L176 417.4 176 48l0-16-32 0 0 16 0 369.4L83.3 356.7 72 345.4 49.4 368l11.3 11.3 88 88L160 478.6zM336 32l0 32 16 0 99.5 0L340 189.4l-4 4.5 0 6.1 0 8 0 16 16 0 128 0 16 0 0-32-16 0-99.5 0L492 66.6l4-4.5 0-6.1 0-8 0-16-16 0L352 32l-16 0zm65.4 265.5l-80 180-1.1 2.5 35 0 14.2-32 93 0 14.2 32 35 0-1.1-2.5-80-180-4.2-9.5-20.8 0-4.2 9.5zM416 343.4L448.3 416l-64.5 0L416 343.4z"/></svg>

<svg xmlns="http://www.w3.org/2000/svg" viewBox="0 0 576 512"><!--! Font Awesome Pro 6.4.2 by @fontawesome - https://fontawesome.com License - https://fontawesome.com/license (Commercial License) Copyright 2023 Fonticons, Inc. --><path d="M160 478.6l11.3-11.3 88-88L270.6 368 248 345.4l-11.3 11.3L176 417.4V48 32H144V48 417.4L83.3 356.7 72 345.4 49.4 368l11.3 11.3 88 88L160 478.6zM336 32V64h16 99.5L340 189.4l-4 4.5V200v8 16h16H480h16V192H480 380.5L492 66.6l4-4.5V56 48 32H480 352 336zm65.4 265.5l-80 180-1.1 2.5h35l14.2-32h93l14.2 32h35l-1.1-2.5-80-180-4.2-9.5H405.6l-4.2 9.5zM416 343.4L448.3 416H383.7L416 343.4z"/></svg>
